X:1
T:Partition sans titre
C:Compositeur / Arrangeur
L:1/8
M:4/4
I:linebreak $
K:D
V:1 treble nm="Violon" snm="Vln."
V:1
 de |"D" f2 d2"A" e3 d | cdec A2 Bc |"G" d2 B2 G2 d2 |"A" cdec A2 de |"D" f2 a2"A" e3 d | %6
 cdec"D" A2 dc |"G" B3 d"A" cdeg |"D" fd"A"ec"D" d2 :: (3DEF |"G" GFGA B2 Bd |"A" cABc"D" d2 ef | %12
"A7" g2 e2 efed | cdfc"D" A2 ag |"D" fgaf"G" g2 gf |"A" efge afdc |"G" Bged"A" cage | %17
"D" fd"A"ec"D" d2 :| %18
